src/icons/typescript.svg

<svg
  clip-rule="evenodd"
  fill-rule="evenodd"
  stroke-linejoin="round"
  stroke-miterlimit="1.414"
  viewBox="0 0 500 500"
  xmlns="http://www.w3.org/2000/svg"
>
  <path
    d="M46 46v408h408V46H46zm310.02 198.17v.006c3.912.012 8.359.213 11.703.576 13.619 1.473 24.225 7.349 33.248 18.416 4.493 5.513 6.03 7.925 5.703 8.957-.211.666-3.294 2.874-13.096 9.38-9.629 6.393-12.73 8.308-13.45 8.308-.731 0-2.253-1.566-4.446-4.573-4.225-5.789-8.538-8.431-15.205-9.312-7.17-.95-13.602 1.31-16.752 5.888-2.693 3.912-3.1 10.206-.96 14.78 2.48 5.297 6.968 8.226 24.167 15.767 19.836 8.698 29.888 14.651 37.209 22.04 7.884 7.956 11.878 17.142 13.105 30.136.599 6.334-.133 13.84-1.945 19.943-4.445 14.961-16.44 25.916-34.02 31.072-4.86 1.425-9.382 2.276-13.855 2.604-6.829.503-16.603.226-22.486-.63-14.884-2.169-31.686-10.83-40.064-20.65-4.113-4.821-9.364-12.755-9.364-14.15 0-.674.334-1.057 1.656-1.897 3.922-2.492 26.394-15.338 26.83-15.338.264 0 1.438 1.383 2.608 3.074 2.651 3.828 9.17 10.407 12.484 12.602 2.707 1.793 6.169 3.232 10.279 4.271 2.354.587 3.6.692 8.736.692 5.248-.002 6.324-.09 8.672-.721 6.21-1.671 11.057-5.13 13.111-9.354.9-1.825.918-2.053.918-6.48v-4.59l-1.104-2.19c-2.673-5.306-8.433-8.947-26.645-16.835-8.365-3.624-18.61-8.733-22.61-11.275-9.129-5.801-15.456-12.433-19.608-20.551-4.13-8.073-4.745-11.078-4.755-23.217-.01-9.503-.026-9.386 1.941-15.451 1.785-5.504 5.439-11.652 9.473-15.94 8.05-8.557 19.813-14.057 32.406-15.151 1.61-.153 3.768-.212 6.115-.205zm-108.36 1.877h.004c24.253.012 38.156.096 38.379.236.42.26.473 2.371.473 15.842v15.541l-24.201.088-24.201.088v68.713c0 37.793-.077 68.938-.182 69.213-.171.463-2.033.498-17.78.498h-17.587l-.182-.71c-.117-.39-.203-31.537-.205-69.214l-.006-68.504-24.2-.086-24.202-.088v-15.357c0-12.18.084-15.442.409-15.766.333-.343 12.684-.431 65.902-.484 10.26-.01 19.495-.015 27.58-.01z"
    fill="#0288d1"
  />
</svg>

<svg viewBox="0 0 500 500" xmlns="http://www.w3.org/2000/svg">
  <path
    d="M46 46V454H454V46H46ZM356.02 244.17V244.176C359.932 244.188 364.379 244.389 367.723 244.752C381.342 246.225 391.948 252.101 400.971 263.168C405.464 268.681 407.001 271.093 406.674 272.125C406.463 272.791 403.38 274.999 393.578 281.505C383.949 287.898 380.848 289.813 380.128 289.813C379.397 289.813 377.875 288.247 375.682 285.24C371.457 279.451 367.144 276.809 360.477 275.928C353.307 274.978 346.875 277.238 343.725 281.816C341.032 285.728 340.625 292.022 342.765 296.596C345.245 301.893 349.733 304.822 366.932 312.363C386.768 321.061 396.82 327.014 404.141 334.403C412.025 342.359 416.019 351.545 417.246 364.539C417.845 370.873 417.113 378.379 415.301 384.482C410.856 399.443 398.861 410.398 381.281 415.554C376.421 416.979 371.899 417.83 367.426 418.158C360.597 418.661 350.823 418.384 344.94 417.528C330.056 415.359 313.254 406.698 304.876 396.878C300.763 392.057 295.512 384.123 295.512 382.728C295.512 382.054 295.846 381.671 297.168 380.831C301.09 378.339 323.562 365.493 323.998 365.493C324.262 365.493 325.436 366.876 326.606 368.567C329.257 372.395 335.776 378.974 339.09 381.169C341.797 382.962 345.259 384.401 349.369 385.44C351.723 386.027 352.969 386.132 358.105 386.132C363.353 386.13 364.429 386.042 366.777 385.411C372.987 383.74 377.834 380.281 379.888 376.057C380.788 374.232 380.806 374.004 380.806 369.577V364.987L379.702 362.797C377.029 357.491 371.269 353.85 353.057 345.962C344.692 342.338 334.447 337.229 330.447 334.687C321.318 328.886 314.991 322.254 310.839 314.136C306.709 306.063 306.094 303.058 306.084 290.919C306.074 281.416 306.058 281.533 308.025 275.468C309.81 269.964 313.464 263.816 317.498 259.528C325.548 250.971 337.311 245.471 349.904 244.377C351.514 244.224 353.672 244.165 356.019 244.172L356.02 244.17ZM247.66 246.047H247.664C271.917 246.059 285.82 246.143 286.043 246.283C286.463 246.543 286.516 248.654 286.516 262.125V277.666L262.315 277.754L238.114 277.842V346.555C238.114 384.348 238.037 415.493 237.932 415.768C237.761 416.231 235.899 416.266 220.152 416.266H202.565L202.383 415.556C202.266 415.166 202.18 384.019 202.178 346.342L202.172 277.838L177.972 277.752L153.77 277.664V262.307C153.77 250.127 153.854 246.865 154.179 246.541C154.512 246.198 166.863 246.11 220.081 246.057C230.341 246.047 239.575 246.042 247.66 246.047Z"
    fill="#0288D1"
  />
</svg>
